public/style/workarea/images/icons/exe-move-icon.svg

<svg fill="none" height="25" viewBox="0 0 24 25" width="24" xmlns="http://www.w3.org/2000/svg"><g stroke="#6b7280" stroke-linecap="round" stroke-linejoin="round" stroke-width="2"><path d="m20 9.56873h-9c-1.10457 0-2 .89547-2 1.99997v9c0 1.1046.89543 2 2 2h9c1.1046 0 2-.8954 2-2v-9c0-1.1045-.8954-1.99997-2-1.99997z"/><path d="m5 15.5687h-1c-.53043 0-1.03914-.2107-1.41421-.5858-.37508-.375-.58579-.8837-.58579-1.4142v-.7536m13-7.24637v-1c0-.53044-.2107-1.03915-.5858-1.41422s-.8838-.58578-1.4142-.58578h-.7977m-7.43753 0h-.76477c-.53043 0-1.03914.21071-1.41421.58578-.37508.37507-.58579.88378-.58579 1.41422v.74639m5.76477-2.74639h1.46875m-7.23352 5.77764v1.4375"/></g></svg>

<svg width="24" height="25" viewBox="0 0 24 25" fill="none" xmlns="http://www.w3.org/2000/svg">
<path d="M20 9.56873H11C9.89543 9.56873 9 10.4642 9 11.5687V20.5687C9 21.6733 9.89543 22.5687 11 22.5687H20C21.1046 22.5687 22 21.6733 22 20.5687V11.5687C22 10.4642 21.1046 9.56873 20 9.56873Z" stroke="#6B7280" stroke-width="2" stroke-linecap="round" stroke-linejoin="round"/>
<path d="M5 15.5687H4C3.46957 15.5687 2.96086 15.358 2.58579 14.9829C2.21071 14.6079 2 14.0992 2 13.5687V12.8151M15 5.56873V4.56873C15 4.03829 14.7893 3.52958 14.4142 3.15451C14.0391 2.77944 13.5304 2.56873 13 2.56873H12.2023M4.76477 2.56873H4C3.46957 2.56873 2.96086 2.77944 2.58579 3.15451C2.21071 3.52958 2 4.03829 2 4.56873V5.31512M7.76477 2.56873H9.23352M2 8.34637V9.78387" stroke="#6B7280" stroke-width="2" stroke-linecap="round" stroke-linejoin="round"/>
</svg>
